X: 590
M: C|
L: 1/8
K: G
|: ef |\
gfed efg2 | c6 ef | gfed fga2 | A6 ef |\
gfed efg2 | c6 e2 | d2cB cBAB | G6 :|

